X: 10271
Q: "Brisk"
M: 2/4
L: 1/16
K: D
d>e |\
f2f2 gfed | B4 d3A | {G}F2ED D3E | F2A2 A2de |\
f2f2 afed | B4 d3A | {G}F2ED E2F2 | d2B2B2 :|
|: dB |\
b2b2 d'baf | a2a2 bafe | d3b afef | d2B2B2 :|


